symbols/web/15mp/materialsymbolsoutlined/15mp_wght100gradN25_40px.svg

<svg xmlns="http://www.w3.org/2000/svg" height="40" width="40"><path d="M14.833 18.417h1.042V9.792h-3.583v1.041h2.541Zm5.917 0h4.875q.458 0 .813-.355.354-.354.354-.812v-2.542q0-.5-.354-.833-.355-.333-.813-.333h-3.833v-2.709h5V9.792H20.75v4.833h4.958v2.708H20.75ZM10.625 30.208h1.083v-7.541h3.125v5.041h1.042v-5.041h3.208v7.541h1.042v-7.625q0-.416-.271-.708t-.729-.292h-7.5q-.417 0-.708.292-.292.292-.292.708Zm12.708 0h1.042v-2.5h4q.417 0 .708-.291.292-.292.292-.709v-4.125q0-.416-.292-.708-.291-.292-.708-.292h-5.042Zm1.042-3.583v-3.958h3.917v3.958ZM9.5 32.792q-.917 0-1.604-.688-.688-.687-.688-1.604v-21q0-.917.688-1.604.687-.688 1.604-.688h21q.917 0 1.604.688.688.687.688 1.604v21q0 .917-.688 1.604-.687.688-1.604.688Zm.042-1h20.916q.5 0 .917-.417.417-.417.417-.917V9.542q0-.5-.417-.917-.417-.417-.917-.417H9.542q-.5 0-.917.417-.417.417-.417.917v20.916q0 .5.417.917.417.417.917.417ZM8.208 8.208v23.584V8.208Z"/></svg>

<svg xmlns="http://www.w3.org/2000/svg" height="40" width="40"><path d="M14.833 18.417H15.875V9.792H12.292V10.833H14.833ZM20.75 18.417H25.625Q26.083 18.417 26.438 18.062Q26.792 17.708 26.792 17.25V14.708Q26.792 14.208 26.438 13.875Q26.083 13.542 25.625 13.542H21.792V10.833H26.792V9.792H20.75V14.625H25.708V17.333H20.75ZM9.5 32.792Q8.583 32.792 7.896 32.104Q7.208 31.417 7.208 30.5V9.5Q7.208 8.583 7.896 7.896Q8.583 7.208 9.5 7.208H30.5Q31.417 7.208 32.104 7.896Q32.792 8.583 32.792 9.5V30.5Q32.792 31.417 32.104 32.104Q31.417 32.792 30.5 32.792ZM9.542 31.792H30.458Q30.958 31.792 31.375 31.375Q31.792 30.958 31.792 30.458V9.542Q31.792 9.042 31.375 8.625Q30.958 8.208 30.458 8.208H9.542Q9.042 8.208 8.625 8.625Q8.208 9.042 8.208 9.542V30.458Q8.208 30.958 8.625 31.375Q9.042 31.792 9.542 31.792ZM8.208 8.208Q8.208 8.208 8.208 8.583Q8.208 8.958 8.208 9.542V30.458Q8.208 31.042 8.208 31.417Q8.208 31.792 8.208 31.792Q8.208 31.792 8.208 31.417Q8.208 31.042 8.208 30.458V9.542Q8.208 8.958 8.208 8.583Q8.208 8.208 8.208 8.208ZM11.625 21.583Q11.208 21.583 10.917 21.875Q10.625 22.167 10.625 22.583V30.208H11.708V22.667H14.833V27.708H15.875V22.667H19.083V30.208H20.125V22.583Q20.125 22.167 19.854 21.875Q19.583 21.583 19.125 21.583ZM23.333 21.583V30.208H24.375V27.708H28.375Q28.792 27.708 29.083 27.417Q29.375 27.125 29.375 26.708V22.583Q29.375 22.167 29.083 21.875Q28.792 21.583 28.375 21.583ZM24.375 22.667H28.292V26.625H24.375Z"/></svg>
